outputs/icons/navigation/list_alt_round.svg

<svg xmlns="http://www.w3.org/2000/svg" width="1200" height="1200" fill="none"><g clip-path="url(#a)"><path fill="#000" d="M200 700h100c27.5 0 50-22.5 50-50V550c0-27.5-22.5-50-50-50H200c-27.5 0-50 22.5-50 50v100c0 27.5 22.5 50 50 50m0 250h100c27.5 0 50-22.5 50-50V800c0-27.5-22.5-50-50-50H200c-27.5 0-50 22.5-50 50v100c0 27.5 22.5 50 50 50m0-500h100c27.5 0 50-22.5 50-50V300c0-27.5-22.5-50-50-50H200c-27.5 0-50 22.5-50 50v100c0 27.5 22.5 50 50 50m250 250h550c27.5 0 50-22.5 50-50V550c0-27.5-22.5-50-50-50H450c-27.5 0-50 22.5-50 50v100c0 27.5 22.5 50 50 50m0 250h550c27.5 0 50-22.5 50-50V800c0-27.5-22.5-50-50-50H450c-27.5 0-50 22.5-50 50v100c0 27.5 22.5 50 50 50m-50-650v100c0 27.5 22.5 50 50 50h550c27.5 0 50-22.5 50-50V300c0-27.5-22.5-50-50-50H450c-27.5 0-50 22.5-50 50"/></g><defs><clipPath id="a"><path fill="#fff" d="M0 0h1200v1200H0z"/></clipPath></defs></svg>

<svg width="1200" height="1200" viewBox="0 0 1200 1200" fill="none" xmlns="http://www.w3.org/2000/svg"><g clip-path="url(#clip0_223_1872)"><path d="M200 700H300C327.5 700 350 677.5 350 650V550C350 522.5 327.5 500 300 500H200C172.5 500 150 522.5 150 550V650C150 677.5 172.5 700 200 700ZM200 950H300C327.5 950 350 927.5 350 900V800C350 772.5 327.5 750 300 750H200C172.5 750 150 772.5 150 800V900C150 927.5 172.5 950 200 950ZM200 450H300C327.5 450 350 427.5 350 400V300C350 272.5 327.5 250 300 250H200C172.5 250 150 272.5 150 300V400C150 427.5 172.5 450 200 450ZM450 700H1000C1027.5 700 1050 677.5 1050 650V550C1050 522.5 1027.5 500 1000 500H450C422.5 500 400 522.5 400 550V650C400 677.5 422.5 700 450 700ZM450 950H1000C1027.5 950 1050 927.5 1050 900V800C1050 772.5 1027.5 750 1000 750H450C422.5 750 400 772.5 400 800V900C400 927.5 422.5 950 450 950ZM400 300V400C400 427.5 422.5 450 450 450H1000C1027.5 450 1050 427.5 1050 400V300C1050 272.5 1027.5 250 1000 250H450C422.5 250 400 272.5 400 300Z" fill="#1D1E23"/></g><defs><clipPath id="clip0_223_1872"><path width="24" fill="white" d="M0 0H1200V1200H0V0z"/></clipPath></defs></svg>
